X:477
T: Die traurige Braut (187a), S. 407
N: T0365
O: Luxemburg
S: Singendes Volk, Esch-Alzette, 1937 posth.]
N: Heffingen, hhh Nikolaus Ewen, 30.8.1934
R: Hochzeits-, Ehestandslied]
M: 2/4
L: 1/8
K: G
GB | d2de | d2de | d2dc | B2z2 |
dcBB | B2dB | B2AA | A2z2 |
GBdd | d2e2 | d2cc | c2
dc | BBBB | d2B2 | B2A2 | A2
d2 | BGGe | e2
d2 | dddd | d2c2 | B2

@@@ Tune index: 8531
